X:1
T:Morton, 88.88.88
T:Edwin Barnes, 1886
T:Morton, 88.88.88
T:Public Domain
C:Edwin Barnes, 1886
Z:Public Domain
%%score ( 1 2 ) ( 3 4 )
L:1/8
M:3/4
K:G
V:1 treble 
V:2 treble 
V:3 bass 
V:4 bass 
V:1
 [CD]2 | [B,D]4 [B,D]2 | [B,G]4 [DB]2 | (A2 E2) [CF]2 | [B,G]4 [DG]2 | [EG]4 [EG]2 | [EG]4 [EG]2 | %7
 ([EG]2 [DF]2) [CE]2 | [B,D]4 [DB]2 | [GB]4 [=FB]2 | [Ec]4 [Ec]2 | (c2 G2) [=EA]2 | [DB]4 [DG]2 | %13
 [EG]4 [CE]2 | (D2 G2) [DB]2 | (A2 G2) [DA]2 | [DB]4 [Gd]2 | [=Fd]4 [Fd]2 | [Ec]4 [Ec]2 | %19
 (c2 G2) [=EA]2 | [DB]4 [CE]2 | (D2 G2) [DB]2 | [DA]4 [DA]2 | [DG]4 [DF]2 | [DG]4 |] %25
V:2
 x2 | x6 | x6 | C4 x2 | x6 | x6 | x6 | x6 | x6 | x6 | x6 | _E4 x2 | x6 | x6 | B,4 x2 | D4 x2 | x6 | %17
 x6 | x6 | _E4 x2 | x6 | B,4 x2 | x6 | x6 | x4 |] %25
V:3
 [D,F,]2 | [G,,G,]4 [G,,G,]2 | [G,,D,]4 [G,,G,]2 | (E,2 A,2) [D,A,]2 | [G,,G,]4 [G,B,]2 | %5
 [E,B,]4 [E,B,]2 | [C,C]4 [C,C]2 | (C2 G,2) [C,G,]2 | [G,,G,]4 [G,B,]2 | [G,D]4 [G,D]2 | %10
 [G,C]4 [G,C]2 | [G,C]4 [G,C]2 | [G,B,]4 [G,B,]2 | [C,C]4 [C,G,]2 | [G,,G,]4 [G,,G,]2 | %15
 (F,2 E,2) [D,F,]2 | [G,,G,]4 [G,B,]2 | [G,B,]4 [G,B,]2 | [G,C]4 [G,C]2 | [G,C]4 [G,C]2 | %20
 [G,B,]4 [C,G,]2 | [G,,G,]4 [G,,G,]2 | [D,F,]4 [D,C]2 | [D,B,]4 [D,A,]2 | [G,,B,]4 |] %25
V:4
 x2 | x6 | x6 | C,4 x2 | x6 | x6 | x6 | C,4 x2 | x6 | x6 | x6 | x6 | x6 | x6 | x6 | D,4 x2 | x6 | %17
 x6 | x6 | x6 | x6 | x6 | x6 | x6 | x4 |] %25

